X: 17493
T: Hills Of Coore, The
R: hornpipe
M: 4/4
K: Adorian
|:e>AAB AGEG|cd ed/e/ ged2|e/f/gab gedB|c/B/A BA AGE2|
e>AAB AGEG|cd ed/e/ ged2|e/f/gab ged2|1 DEGB A2A2:|2 degb a3a||
|:aea/b/c'/b/ ~a3a|gdga gdd2|e/f/gab gedB|c/B/A BA AGE2|
e>AAB AGEG|cd ed/e/ ged2|e/f/gab ged2|1 degb a3a:|2 DEGB A2A2||

